Catalina-dark/actions/16/boundingbox_bottom_right.svg

<?xml version="1.0" encoding="UTF-8" standalone="no"?>
<svg
   xmlns:dc="http://purl.org/dc/elements/1.1/"
   xmlns:cc="http://creativecommons.org/ns#"
   xmlns:rdf="http://www.w3.org/1999/02/22-rdf-syntax-ns#"
   xmlns:svg="http://www.w3.org/2000/svg"
   xmlns="http://www.w3.org/2000/svg"
   xmlns:sodipodi="http://sodipodi.sourceforge.net/DTD/sodipodi-0.dtd"
   xmlns:inkscape="http://www.inkscape.org/namespaces/inkscape"
   width="16"
   height="16"
   viewBox="0 0 16 16"
   version="1.1"
   id="svg7"
   sodipodi:docname="boundingbox_bottom_right.svg"
   inkscape:version="0.92.4 5da689c313, 2019-01-14">
  <metadata
     id="metadata11">
    <rdf:RDF>
      <cc:Work
         rdf:about="">
        <dc:format>image/svg+xml</dc:format>
        <dc:type
           rdf:resource="http://purl.org/dc/dcmitype/StillImage" />
      </cc:Work>
    </rdf:RDF>
  </metadata>
  <sodipodi:namedview
     pagecolor="#ffffff"
     bordercolor="#666666"
     borderopacity="1"
     objecttolerance="10"
     gridtolerance="10"
     guidetolerance="10"
     inkscape:pageopacity="0"
     inkscape:pageshadow="2"
     inkscape:window-width="715"
     inkscape:window-height="480"
     id="namedview9"
     showgrid="false"
     inkscape:zoom="14.75"
     inkscape:cx="-0.54237288"
     inkscape:cy="8"
     inkscape:window-x="0"
     inkscape:window-y="26"
     inkscape:window-maximized="0"
     inkscape:current-layer="svg7" />
  <defs
     id="defs3">
    <style
       id="current-color-scheme"
       type="text/css">
   .ColorScheme-Text { color:#5c616c; } .ColorScheme-Highlight { color:#5294e2; }
  </style>
  </defs>
  <path
     style="fill:#f1f6f8;fill-opacity:0.8509804"
     class="ColorScheme-Text"
     d="M 10 0 L 10 6.1015625 C 9.7766 6.1489625 9.5566969 6.2115625 9.3417969 6.2890625 C 9.3050969 6.3019625 9.2687219 6.314425 9.2324219 6.328125 C 8.8123219 6.487125 8.4155344 6.7018969 8.0527344 6.9667969 C 8.0227344 6.9886969 7.9943437 7.0125563 7.9648438 7.0351562 C 7.7895438 7.1679563 7.6230969 7.3120969 7.4667969 7.4667969 C 7.3060969 7.6288969 7.1566313 7.801775 7.0195312 7.984375 C 7.0005813 8.009405 6.9833238 8.0351469 6.9648438 8.0605469 C 6.8421037 8.2278869 6.7299162 8.4027044 6.6289062 8.5839844 C 6.6188662 8.6021644 6.6094094 8.6203619 6.5996094 8.6386719 C 6.4876794 8.8451119 6.3904337 9.0591869 6.3085938 9.2792969 C 6.3077937 9.2812969 6.3073466 9.2832563 6.3066406 9.2851562 L 6.3027344 9.296875 C 6.2209544 9.523635 6.1556819 9.7560075 6.1074219 9.9921875 C 6.1068219 9.9947875 6.1060108 9.9973 6.1054688 10 L 0 10 L 0 12 L 6.1015625 12 C 6.1579625 12.268 6.2364375 12.532109 6.3359375 12.787109 C 6.3461075 12.813689 6.3546344 12.840837 6.3652344 12.867188 C 6.4591344 13.098188 6.5700656 13.321156 6.6972656 13.535156 C 6.7257656 13.584156 6.7550562 13.630734 6.7851562 13.677734 C 6.9139562 13.882734 7.0575437 14.078672 7.2148438 14.263672 C 7.2371937 14.289582 7.2622963 14.312461 7.2851562 14.337891 C 7.4403662 14.510771 7.6074363 14.672616 7.7851562 14.822266 C 7.8117362 14.844626 7.8362513 14.868825 7.8632812 14.890625 C 8.0529413 15.041705 8.2533406 15.178781 8.4628906 15.300781 C 8.5089806 15.328011 8.5545725 15.355099 8.6015625 15.380859 C 8.8115125 15.496629 9.0295262 15.597151 9.2539062 15.681641 C 9.2977192 15.698001 9.3423627 15.711403 9.3867188 15.726562 C 9.6180788 15.806993 9.8550531 15.870316 10.095703 15.916016 C 10.109523 15.918516 10.122869 15.921428 10.136719 15.923828 C 10.421729 15.974158 10.71058 15.999643 11 16 C 11.167 16 11.334 15.990609 11.5 15.974609 C 11.66741 15.957999 11.832001 15.933101 11.994141 15.900391 C 12.008061 15.897591 12.021276 15.893525 12.035156 15.890625 C 12.339356 15.826015 12.636878 15.733161 12.923828 15.613281 C 12.931448 15.610081 12.939666 15.608669 12.947266 15.605469 L 12.962891 15.597656 C 13.240361 15.478086 13.506422 15.333616 13.757812 15.166016 C 13.774092 15.155216 13.792454 15.147709 13.808594 15.136719 C 14.056514 14.966549 14.288573 14.77437 14.501953 14.5625 C 14.516803 14.54789 14.532195 14.534321 14.546875 14.519531 C 14.748585 14.314381 14.932203 14.092199 15.095703 13.855469 C 15.118983 13.822159 15.145489 13.791702 15.167969 13.757812 C 15.320359 13.524503 15.452993 13.278847 15.564453 13.023438 C 15.583723 12.980068 15.604977 12.938541 15.623047 12.894531 C 15.730837 12.630141 15.815783 12.357015 15.876953 12.078125 C 15.888623 12.025195 15.902109 11.973472 15.912109 11.919922 C 15.925589 11.844022 15.937266 11.767836 15.947266 11.691406 C 15.959126 11.605826 15.971016 11.520504 15.978516 11.433594 C 15.991896 11.289444 15.99912 11.14477 16 11 C 15.998 10.736 15.974641 10.471937 15.931641 10.210938 C 15.924751 10.167968 15.920109 10.124661 15.912109 10.082031 C 15.864989 9.8332513 15.799054 9.5883994 15.714844 9.3496094 C 15.703044 9.3160294 15.690224 9.28327 15.677734 9.25 C 15.587994 9.00761 15.479596 8.772505 15.353516 8.546875 C 15.344856 8.531555 15.334972 8.5171831 15.326172 8.5019531 C 15.194452 8.2737131 15.044906 8.0562325 14.878906 7.8515625 C 14.874786 7.8465025 14.871287 7.8410375 14.867188 7.8359375 C 14.699437 7.6329775 14.515929 7.4435912 14.318359 7.2695312 C 14.296199 7.2498312 14.274463 7.2302575 14.251953 7.2109375 C 14.052973 7.0388775 13.840727 6.8828006 13.617188 6.7441406 C 13.605277 6.7368206 13.592058 6.7318094 13.580078 6.7246094 C 13.094178 6.4309994 12.561829 6.2222919 12.005859 6.1074219 C 12.003759 6.1069219 12.0021 6.1058867 12 6.1054688 L 12 0 L 10 0 z"
     id="path5" />
</svg>

<svg width="16" height="16" version="1.1" viewBox="0 0 16 16" xmlns="http://www.w3.org/2000/svg">
<defs>
<style id="current-color-scheme" type="text/css">.ColorScheme-Text { color:#5c616c; } .ColorScheme-Highlight { color:#5294e2; }</style>
</defs>
<path class="ColorScheme-Text" d="m10 0v6.1016c-0.2234 0.0474-0.4433 0.11-0.6582 0.1875-0.0367 0.0129-0.073075 0.025362-0.10938 0.039062-0.4201 0.159-0.81689 0.37377-1.1797 0.63867-0.03 0.0219-0.058391 0.045759-0.087891 0.068359-0.1753 0.1328-0.34175 0.27694-0.49805 0.43164-0.1607 0.1621-0.31017 0.33498-0.44727 0.51758-0.01895 0.02503-0.036207 0.050772-0.054687 0.076172-0.12274 0.16734-0.23493 0.34216-0.33594 0.52344-0.01004 0.01818-0.019497 0.036378-0.029297 0.054688-0.11193 0.20644-0.20918 0.42052-0.29102 0.64062-8.001e-4 2e-3 -0.0012472 0.0039594-0.0019532 0.0058593l-0.0039062 0.011719c-0.08178 0.22676-0.14705 0.45913-0.19531 0.69531-6e-4 0.0026-0.0014111 0.0051125-0.0019531 0.0078125h-6.1055v2h6.1016c0.0564 0.268 0.13488 0.53211 0.23438 0.78711 0.01017 0.02658 0.018697 0.053728 0.029297 0.080079 0.0939 0.231 0.20483 0.45397 0.33203 0.66797 0.0285 0.049 0.057791 0.095578 0.087891 0.14258 0.1288 0.205 0.27239 0.40094 0.42969 0.58594 0.02235 0.02591 0.047452 0.048789 0.070312 0.074219 0.15521 0.17288 0.32228 0.33472 0.5 0.48438 0.02658 0.02236 0.051095 0.046559 0.078125 0.068359 0.18966 0.15108 0.39006 0.28816 0.59961 0.41016 0.04609 0.02723 0.091682 0.054318 0.13867 0.080078 0.20995 0.11577 0.42796 0.21629 0.65234 0.30078 0.043813 0.01636 0.088456 0.029762 0.13281 0.044921 0.23136 0.080431 0.46833 0.14375 0.70898 0.18945 0.01382 0.0025 0.027166 0.005412 0.041016 0.007812 0.28501 0.05033 0.57386 0.075815 0.86328 0.076172 0.167 0 0.334-0.009391 0.5-0.025391 0.16741-0.01661 0.332-0.041508 0.49414-0.074218 0.01392-0.0028 0.027135-0.006866 0.041015-0.009766 0.3042-0.06461 0.60172-0.15746 0.88867-0.27734 0.00762-0.0032 0.015838-0.004612 0.023438-0.007812l0.015625-0.007813c0.27747-0.11957 0.54353-0.26404 0.79492-0.43164 0.01628-0.0108 0.034642-0.018307 0.050782-0.029297 0.24792-0.17017 0.47998-0.36235 0.69336-0.57422 0.01485-0.01461 0.030242-0.028179 0.044922-0.042969 0.20171-0.20515 0.38533-0.42733 0.54883-0.66406 0.02328-0.03331 0.049786-0.063767 0.072266-0.097657 0.15239-0.23331 0.28502-0.47896 0.39648-0.73437 0.01927-0.04337 0.040524-0.084897 0.058594-0.12891 0.10779-0.26439 0.19274-0.53752 0.25391-0.81641 0.01167-0.05293 0.025156-0.10465 0.035156-0.1582 0.01348-0.0759 0.025157-0.15209 0.035157-0.22852 0.01186-0.08558 0.02375-0.1709 0.03125-0.25781 0.01338-0.14415 0.020604-0.28882 0.021484-0.43359-2e-3 -0.264-0.025359-0.52806-0.068359-0.78906-0.00689-0.04297-0.011532-0.086277-0.019532-0.12891-0.04712-0.24878-0.11306-0.49363-0.19726-0.73242-0.0118-0.03358-0.02462-0.066339-0.03711-0.099609-0.08974-0.24239-0.19814-0.4775-0.32422-0.70312-0.00866-0.01532-0.018544-0.029692-0.027344-0.044922-0.13172-0.22824-0.28127-0.44572-0.44727-0.65039-0.00412-0.00506-0.007619-0.010525-0.011718-0.015625-0.16775-0.20296-0.35126-0.39235-0.54883-0.56641-0.02216-0.0197-0.043896-0.039274-0.066406-0.058594-0.19898-0.17206-0.41123-0.32814-0.63476-0.4668-0.011911-0.00732-0.02513-0.012331-0.03711-0.019531-0.4859-0.29361-1.0182-0.50232-1.5742-0.61719-0.0021-5e-4 -0.003759-0.0015352-0.005859-0.0019531v-6.1055h-2z" fill="#dedede" fill-opacity=".85098"/>
</svg>
